flaticon/holiday/bauble.svg

<svg xmlns="http://www.w3.org/2000/svg" width="32" height="32" viewBox="0 0 24 24">
    <path d="M 17.847656 13.859375 L 16.4375 13.296875 L 17.878906 12.566406 C 18.078125 12.464844 18.160156 12.21875 18.058594 12.019531 C 17.957031 11.820312 17.710938 11.738281 17.511719 11.839844 L 16.066406 12.570312 L 16.066406 10.984375 C 16.066406 10.757812 15.886719 10.578125 15.660156 10.578125 C 15.4375 10.578125 15.253906 10.757812 15.253906 10.984375 L 15.253906 12.984375 L 12.40625 14.425781 L 12.40625 11.605469 L 13.871094 10.492188 C 14.050781 10.359375 14.085938 10.101562 13.953125 9.921875 C 13.816406 9.746094 13.5625 9.707031 13.382812 9.84375 L 12.40625 10.585938 L 12.40625 8.949219 C 12.40625 8.726562 12.222656 8.542969 12 8.542969 C 11.777344 8.542969 11.59375 8.726562 11.59375 8.949219 L 11.59375 10.585938 L 10.617188 9.84375 C 10.4375 9.710938 10.183594 9.746094 10.046875 9.921875 C 9.914062 10.101562 9.949219 10.359375 10.128906 10.492188 L 11.59375 11.605469 L 11.59375 14.355469 L 9.152344 12.835938 L 9.152344 10.96875 C 9.152344 10.746094 8.96875 10.5625 8.746094 10.5625 C 8.519531 10.5625 8.339844 10.746094 8.339844 10.96875 L 8.339844 12.328125 L 6.925781 11.453125 C 6.734375 11.332031 6.484375 11.390625 6.367188 11.582031 C 6.246094 11.773438 6.304688 12.023438 6.496094 12.140625 L 7.804688 12.957031 L 6.5625 13.453125 C 6.351562 13.535156 6.25 13.773438 6.335938 13.980469 C 6.398438 14.140625 6.550781 14.238281 6.710938 14.238281 C 6.761719 14.238281 6.8125 14.226562 6.863281 14.207031 L 8.660156 13.488281 L 11.164062 15.046875 L 8.429688 16.394531 L 6.917969 15.511719 C 6.722656 15.398438 6.472656 15.464844 6.359375 15.660156 C 6.246094 15.851562 6.3125 16.101562 6.507812 16.214844 L 7.554688 16.828125 L 6.125 17.535156 C 5.921875 17.632812 5.839844 17.875 5.941406 18.078125 C 6.011719 18.222656 6.15625 18.304688 6.304688 18.304688 C 6.367188 18.304688 6.425781 18.292969 6.484375 18.261719 L 7.875 17.574219 L 7.535156 19.027344 C 7.484375 19.246094 7.621094 19.464844 7.839844 19.515625 C 7.871094 19.523438 7.902344 19.527344 7.933594 19.527344 C 8.117188 19.527344 8.285156 19.398438 8.328125 19.210938 L 8.820312 17.109375 L 11.59375 15.742188 L 11.59375 18.96875 L 10.136719 20.007812 C 9.953125 20.136719 9.910156 20.390625 10.042969 20.574219 C 10.121094 20.6875 10.246094 20.746094 10.375 20.746094 C 10.453125 20.746094 10.539062 20.722656 10.609375 20.671875 L 11.59375 19.96875 L 11.59375 21.152344 C 11.59375 21.378906 11.777344 21.558594 12 21.558594 C 12.222656 21.558594 12.40625 21.378906 12.40625 21.152344 L 12.40625 19.96875 L 13.390625 20.671875 C 13.460938 20.722656 13.546875 20.746094 13.625 20.746094 C 13.753906 20.746094 13.878906 20.6875 13.957031 20.574219 C 14.089844 20.390625 14.046875 20.136719 13.863281 20.007812 L 12.40625 18.96875 L 12.40625 15.859375 L 14.863281 17.542969 L 14.847656 19.523438 C 14.847656 19.746094 15.027344 19.929688 15.25 19.933594 C 15.253906 19.933594 15.253906 19.933594 15.253906 19.933594 C 15.476562 19.933594 15.660156 19.753906 15.660156 19.527344 L 15.671875 18.097656 L 17.058594 19.046875 C 17.128906 19.09375 17.207031 19.117188 17.289062 19.117188 C 17.417969 19.117188 17.542969 19.058594 17.625 18.941406 C 17.75 18.757812 17.703125 18.503906 17.519531 18.375 L 15.9375 17.292969 L 17.449219 16.644531 C 17.65625 16.558594 17.75 16.316406 17.664062 16.109375 C 17.574219 15.902344 17.335938 15.808594 17.128906 15.898438 L 15.140625 16.746094 L 12.796875 15.140625 L 15.476562 13.78125 C 15.488281 13.785156 15.496094 13.792969 15.507812 13.796875 C 15.507812 13.800781 15.507812 13.800781 15.511719 13.800781 L 17.542969 14.613281 C 17.59375 14.632812 17.644531 14.644531 17.695312 14.644531 C 17.855469 14.644531 18.007812 14.546875 18.074219 14.386719 C 18.15625 14.179688 18.054688 13.941406 17.847656 13.859375 Z M 17.847656 13.859375"/>
    <path d="M 14.847656 7.414062 L 14.847656 6.488281 C 14.847656 5.828125 14.308594 5.289062 13.648438 5.289062 L 13.265625 5.289062 C 13.699219 4.648438 13.960938 3.71875 13.960938 2.847656 C 13.960938 1.25 13.097656 0 12 0 C 10.902344 0 10.039062 1.25 10.039062 2.847656 C 10.039062 3.71875 10.300781 4.648438 10.734375 5.289062 L 10.351562 5.289062 C 9.691406 5.289062 9.152344 5.828125 9.152344 6.488281 L 9.152344 7.414062 C 5.839844 8.589844 3.457031 11.746094 3.457031 15.457031 C 3.457031 20.167969 7.289062 24 12 24 C 16.710938 24 20.542969 20.167969 20.542969 15.457031 C 20.542969 11.746094 18.160156 8.589844 14.847656 7.414062 Z M 10.855469 2.847656 C 10.855469 1.765625 11.390625 0.8125 12 0.8125 C 12.609375 0.8125 13.144531 1.765625 13.144531 2.847656 C 13.144531 4.105469 12.5 5.289062 12 5.289062 C 11.5 5.289062 10.855469 4.105469 10.855469 2.847656 Z M 9.964844 7.160156 L 9.964844 6.488281 C 9.964844 6.273438 10.140625 6.101562 10.351562 6.101562 L 13.648438 6.101562 C 13.859375 6.101562 14.035156 6.273438 14.035156 6.488281 L 14.035156 7.160156 C 13.957031 7.140625 13.882812 7.128906 13.804688 7.109375 C 13.753906 7.101562 13.707031 7.089844 13.65625 7.078125 C 13.414062 7.03125 13.171875 6.996094 12.925781 6.96875 C 12.878906 6.960938 12.832031 6.960938 12.785156 6.957031 C 12.523438 6.929688 12.261719 6.914062 12 6.914062 C 11.738281 6.914062 11.476562 6.929688 11.214844 6.957031 C 11.167969 6.960938 11.121094 6.960938 11.074219 6.96875 C 10.828125 6.996094 10.585938 7.03125 10.34375 7.078125 C 10.292969 7.089844 10.246094 7.101562 10.195312 7.109375 C 10.117188 7.128906 10.042969 7.140625 9.964844 7.160156 Z M 12 23.1875 C 7.738281 23.1875 4.269531 19.71875 4.269531 15.457031 C 4.269531 11.996094 6.558594 9.0625 9.699219 8.078125 C 9.714844 8.074219 9.730469 8.070312 9.75 8.066406 C 9.949219 8.003906 10.152344 7.953125 10.359375 7.910156 C 10.4375 7.890625 10.515625 7.878906 10.597656 7.863281 C 10.746094 7.835938 10.894531 7.8125 11.046875 7.792969 C 11.136719 7.78125 11.226562 7.773438 11.316406 7.765625 C 11.5 7.746094 11.6875 7.738281 11.878906 7.734375 C 11.960938 7.734375 12.039062 7.734375 12.121094 7.734375 C 12.3125 7.738281 12.5 7.746094 12.683594 7.765625 C 12.773438 7.773438 12.863281 7.785156 12.953125 7.792969 C 13.105469 7.8125 13.253906 7.835938 13.402344 7.863281 C 13.484375 7.878906 13.5625 7.890625 13.640625 7.910156 C 13.847656 7.953125 14.050781 8.003906 14.25 8.066406 C 14.269531 8.070312 14.285156 8.074219 14.300781 8.078125 C 17.441406 9.0625 19.730469 11.996094 19.730469 15.457031 C 19.730469 19.71875 16.261719 23.1875 12 23.1875 Z M 12 23.1875"/>
</svg>

<svg xmlns="http://www.w3.org/2000/svg" width="32" height="32" viewBox="0 0 24 24">
    <path d="M17.848 13.86l-1.41-.563 1.44-.73a.409.409 0 0 0 .18-.547.409.409 0 0 0-.546-.18l-1.446.73v-1.586a.406.406 0 1 0-.813 0v2l-2.847 1.442v-2.82l1.465-1.114a.41.41 0 0 0 .082-.57.41.41 0 0 0-.57-.078l-.977.742V8.949A.408.408 0 0 0 12 8.543a.408.408 0 0 0-.406.406v1.637l-.977-.742a.413.413 0 0 0-.57.078.41.41 0 0 0 .082.57l1.465 1.113v2.75l-2.442-1.52V10.97a.406.406 0 1 0-.813 0v1.36l-1.413-.876a.401.401 0 0 0-.559.129.401.401 0 0 0 .13.559l1.308.816-1.242.496a.401.401 0 0 0-.227.527.404.404 0 0 0 .527.227l1.797-.719 2.504 1.559-2.734 1.348-1.512-.883a.409.409 0 0 0-.559.148.405.405 0 0 0 .149.555l1.047.613-1.43.707a.4.4 0 0 0-.184.543.403.403 0 0 0 .543.184l1.391-.688-.34 1.453a.407.407 0 0 0 .793.184l.492-2.102 2.774-1.367v3.227l-1.457 1.039a.402.402 0 0 0-.094.566.406.406 0 0 0 .566.098l.985-.703v1.183a.406.406 0 1 0 .812 0V19.97l.985.703a.406.406 0 0 0 .566-.098.402.402 0 0 0-.094-.566l-1.457-1.04V15.86l2.457 1.684-.015 1.98c0 .223.18.407.402.41h.004c.223 0 .406-.18.406-.406l.012-1.43 1.387.95a.41.41 0 0 0 .566-.106.412.412 0 0 0-.105-.566l-1.582-1.082 1.511-.648a.405.405 0 1 0-.32-.746l-1.988.847-2.344-1.605 2.68-1.36c.011.004.02.012.03.016 0 .004 0 .004.005.004l2.031.812c.05.02.102.032.152.032a.408.408 0 0 0 .152-.785zm0 0"/>
    <path d="M14.848 7.414v-.926c0-.66-.54-1.199-1.2-1.199h-.382c.433-.64.695-1.57.695-2.441C13.96 1.25 13.098 0 12 0s-1.96 1.25-1.96 2.848c0 .87.26 1.8.694 2.441h-.382c-.66 0-1.2.54-1.2 1.2v.925C5.84 8.59 3.457 11.746 3.457 15.457 3.457 20.168 7.289 24 12 24c4.71 0 8.543-3.832 8.543-8.543 0-3.71-2.383-6.867-5.695-8.043zm-3.993-4.566c0-1.082.536-2.035 1.145-2.035.61 0 1.145.953 1.145 2.035 0 1.257-.645 2.441-1.145 2.441s-1.145-1.184-1.145-2.441zm-.89 4.312v-.672c0-.215.176-.386.387-.386h3.296c.211 0 .387.171.387.386v.672c-.078-.02-.152-.031-.23-.05-.051-.008-.098-.02-.149-.032a9.145 9.145 0 0 0-.73-.11c-.047-.007-.094-.007-.14-.011A7.554 7.554 0 0 0 12 6.914c-.262 0-.523.016-.785.043-.047.004-.094.004-.14.012a9.145 9.145 0 0 0-.731.11c-.051.01-.098.023-.149.03-.078.02-.152.032-.23.051zM12 23.187c-4.262 0-7.73-3.468-7.73-7.73 0-3.46 2.289-6.395 5.43-7.379l.05-.012c.2-.062.402-.113.61-.156.078-.02.156-.031.238-.047.148-.027.297-.05.449-.07.09-.012.18-.02.27-.027a6.6 6.6 0 0 1 .562-.032h.242a6.6 6.6 0 0 1 .563.032c.09.007.18.02.27.027.151.02.3.043.448.07.082.016.16.028.239.047.207.043.41.094.609.156l.05.012c3.141.985 5.43 3.918 5.43 7.379 0 4.262-3.468 7.73-7.73 7.73zm0 0"/>
</svg>
